X:1
T:Arniston Ichol, P/M
M:6/8
L:1/8
Q:80
C:P/M Michael J. Evans '94
S:Jig
K:HP
|: {g}ca{g}aA{d}ce | \
{g}da{g}afed | \
{g}ca{g}aAac |
{g}G{d}Bg{a}dgB | \
{g}ca{g}aA{d}ce | \
{g}da{g}afed |
{g}ca{g}aAac | \
dG{d}B{G}A3 :: \
{g}ca{g}acde |
{g}fd{c}dada | \
ca{g}aAac | \
{g}G{d}Bg{a}dgB |
{g}ca{g}acde | \
{g}fd{c}dada | \
ca{g}aAac |
dG{d}B{G}A3 :: \
{g}caf{g}eac | \
{g}dag{a}fad |
{g}caf{g}eac | \
{g}G{d}Bg{a}dgB|1
{g}caf{g}eac |
{g}dag{a}fad | \
{g}caf{g}eac | \
dG{d}B{G}A3:|2
{g}ca{g}ac{G}c{g}d- | \
d2A{g}def | \
{g}caf{g}eac |
dG{d}B{G}A3|] [ | \
{g}ca{g}acac | \
{g}da{g}adad |
{g}ca{g}acac | \
{g}G{d}Bg{a}dgB | \
{g}ca{g}acac |
{g}da{g}adad | \
{g}caf{g}eac | \
dG{d}B{G}A3|]
{g}ca{g}aAac | \
{g}da{g}aAad | \
{g}caf{g}ecA |
{g}G{d}Bg{a}dgB | \
{g}ca{g}aea{g}a | \
{g}da{g}af3 |
{g}caf{g}eac | \
dG{d}B{G}A3|]
